!!!OTL: ACH WIE IST ES MOEGLICH DANN, DASS ICH DICH VERLASSEN KANN
!!!ARE: Europa, Mitteleuropa, Deutschland
!!!SCT: Z0252
!!!YEM: Copyright 1995, estate of Helmut Schaffrath.
**kern
*ICvox
*Ivox
*M3/8
*k[f#]
*G:
=1
{8.dd
16ee
16dd
16cc
=2
8.b
16b
8b}
=3
{8.b
16cc
16b
16a
=4
8.g
16g
8g}
=5
{8a
8a
8a
=6
8.b
16cc
8dd}
=7
{8dd
16ee
16dd
16cc
16b
=8
8b
8a
8r}
=9
{8dd
8dd
8dd
=10
8.ee
16ff#
8gg}
=11
{8dd
16dd
16ee
16dd
16cc
=12
16b
16a
16b
16cc
8b}
=13
{8g
8b
8dd
=14
16ee
16cc
16a
16cc
8b}
=15
{8g
8b
8dd
=16
16ee
16cc
16a
16cc
8b}
=17
{8dd
16ee
16cc
16a
16cc
=18
8cc
8b
8r}
==
!!!AGN: lyrisches Lied, Romanze, Liebe
!!!ONB: ESAC (Essen Associative Code) Database: ZUCCAL
!!!AMT: simple triple
!!!AIN: vox
!!!EED: Helmut Schaffrath
!!!EEV: 1.0
*-
